packages/theme-chalk/src/icons/files.svg

<svg width="15px" height="17px" viewBox="0 0 15 17" version="1.1" xmlns="http://www.w3.org/2000/svg" xmlns:xlink="http://www.w3.org/1999/xlink">
    <g id="Symbols" stroke="none" stroke-width="1" fill-rule="evenodd">
        <g id="icon/default/voucher" transform="translate(-5.000000, -4.000000)">
            <path d="M5,7.37629592 L5,20.5799999 C8.63458863,20.5799999 12.2229112,20.5799999 15.8644002,20.5734469 L15.8644002,17.2364456 L19.9793983,17.2364456 L19.9901358,17.1266228 C19.9955836,17.0857255 19.9993733,17.0510654 19.9993733,17.0140367 L20.0001628,15.2341342 C20.0009523,13.3778848 20.0025314,11.5189826 19.9925044,9.65966982 C19.9925044,9.5224269 19.8938139,9.35858492 19.7888862,9.25411513 C18.7765588,8.24060342 17.7626523,7.23211308 16.7488248,6.22400171 L14.7449344,4.2289927 C14.5868718,4.07209031 14.4288091,4 14.1982681,4 C12.8312472,4.00963772 11.4673132,4.00848122 10.1010659,4.00732468 L8.73327911,4.00655366 L8.34468338,4.00655366 L8.34468338,7.37629592 L5,7.37629592 Z M9.98464276,5.70781105 L13.3354765,5.70781105 L13.3354765,10.6215151 L18.273869,10.6215151 L18.273869,15.6270013 L9.98464276,15.6270013 L9.98464276,5.70781105 Z M6.70549774,18.8852871 L6.70549774,8.96613632 L8.34468338,8.96613632 L8.34468338,17.2364456 L14.1520021,17.2364456 L14.1520021,18.8852871 L6.70549774,18.8852871 Z M15.0479537,8.93337108 L15.0479537,6.9900135 L17.0232633,8.93337108 L15.0479537,8.93337108 Z M16.6084475,13.9585006 L16.6084475,12.3227652 L11.6639204,12.3227652 L11.6639204,13.9585006 L16.6084475,13.9585006 Z" id="path0_fill" fill-rule="nonzero"></path>
        </g>
    </g>
</svg>

<svg xmlns="http://www.w3.org/2000/svg" width="24" height="24" viewBox="0 0 24 24">
    <g fill-rule="evenodd">
        <path fill-rule="nonzero" d="M5 7.376V20.58c3.635 0 7.223 0 10.864-.007v-3.337h4.115l.011-.11a.832.832 0 0 0 .01-.112v-1.78c.001-1.856.003-3.715-.007-5.574 0-.138-.1-.301-.204-.406a1257.446 1257.446 0 0 0-3.04-3.03l-2.004-1.995A.71.71 0 0 0 14.198 4c-1.367.01-2.73.008-4.097.007H8.345v3.37H5zm4.985-1.668h3.35v4.914h4.939v5.005h-8.29v-9.92zm-3.28 13.177V8.966h1.64v8.27h5.807v1.65H6.705zm8.343-9.952V6.99l1.975 1.943h-1.975zm1.56 5.026v-1.636h-4.944v1.636h4.944z"/>
    </g>
</svg>
